; generated by PrusaSlicer 2.3.3 on 2021-10-03 at 11:23:23 UTC

; 

; external perimeters extrusion width = 0.45mm
; perimeters extrusion width = 0.45mm
; infill extrusion width = 0.45mm
; solid infill extrusion width = 0.45mm
; top infill extrusion width = 0.40mm
; first layer extrusion width = 0.42mm

M201 X9000 Y9000 Z500 E10000 ; sets maximum accelerations, mm/sec^2
M203 X500 Y500 Z12 E120 ; sets maximum feedrates, mm/sec
M204 P1500 R1500 T1500 ; sets acceleration (P, T) and retract acceleration (R), mm/sec^2
M205 X10.00 Y10.00 Z0.20 E2.50 ; sets the jerk limits, mm/sec
M205 S0 T0 ; sets the minimum extruding and travel feed rate, mm/sec
M107
M190 S60 ; set bed temperature and wait for it to be reached
M104 S210 ; set temperature
;TYPE:Custom
G28 ; home all axes
G1 Z5 F5000 ; lift nozzle
M109 S210 ; set temperature and wait for it to be reached
G21 ; set units to millimeters
G90 ; use absolute coordinates
M82 ; use absolute distances for extrusion
G92 E0
; Filament gcode
;LAYER_CHANGE
;Z:0.2
;HEIGHT:0.2
G1 Z0.200 F7800.000
G1 E-2.00000 F2400.000
G92 E0
G1 X-0.025 Y-16.361 F7800.000
G1 E2.00000 F2400.000
;TYPE:Skirt
;WIDTH:0.42
G1 F1800.000
G1 X10.006 Y-16.377 E2.31454
G1 X11.123 Y-16.277 E2.34970
G1 X12.200 Y-15.986 E2.38467
G1 X13.209 Y-15.511 E2.41964
G1 X14.120 Y-14.867 E2.45461
G1 X14.909 Y-14.070 E2.48978
G1 X15.543 Y-13.153 E2.52475
G1 X16.008 Y-12.139 E2.55972
G1 X16.289 Y-11.053 E2.59488
G1 X16.377 Y-10.023 E2.62732
G1 X16.369 Y10.312 E3.26489
G1 X16.252 Y11.258 E3.29479
G1 X15.994 Y12.176 E3.32469
G1 X15.603 Y13.046 E3.35459
G1 X15.082 Y13.852 E3.38469
G1 X14.123 Y14.865 E3.42842
G1 X12.961 Y15.648 E3.47234
G1 X11.657 Y16.158 E3.51626
G1 X10.272 Y16.371 E3.56019
G1 X-10.337 Y16.368 E4.20636
G1 X-11.277 Y16.248 E4.23607
G1 X-12.188 Y15.990 E4.26577
G1 X-13.057 Y15.597 E4.29567
G1 X-13.852 Y15.082 E4.32538
G1 X-14.865 Y14.123 E4.36911
G1 X-15.648 Y12.961 E4.41303
G1 X-16.158 Y11.657 E4.45696
G1 X-16.371 Y10.272 E4.50088
G1 X-16.368 Y-10.337 E5.14705
G1 X-16.248 Y-11.277 E5.17676
G1 X-15.990 Y-12.188 E5.20647
G1 X-15.597 Y-13.057 E5.23637
G1 X-15.082 Y-13.852 E5.26607
G1 X-14.189 Y-14.808 E5.30708
G1 X-13.120 Y-15.562 E5.34809
G1 X-11.920 Y-16.081 E5.38909
G1 X-10.639 Y-16.345 E5.43010
G1 X-0.085 Y-16.361 E5.76100
G1 E3.76100 F2400.000
G92 E0
G1 X-9.213 Y-9.213 F7800.000
G1 E2.00000 F2400.000
;TYPE:Perimeter
G1 F1800.000
G1 X9.213 Y-9.213 E2.57773
G1 X9.213 Y9.213 E3.15546
G1 X-9.213 Y9.213 E3.73319
G1 X-9.213 Y-9.153 E4.30904
G1 X-9.590 Y-9.590 F7800.000
;TYPE:External perimeter
G1 F1800.000
G1 X9.590 Y-9.590 E4.91041
G1 X9.590 Y9.590 E5.51179
G1 X-9.590 Y9.590 E6.11316
G1 X-9.590 Y-9.530 E6.71266
G1 X-9.204 Y-9.486 F7800.000
G1 E4.71266 F2400.000
G92 E0
G1 X9.100 Y-8.333 F7800.000
G1 E2.00000 F2400.000
;TYPE:Solid infill
;WIDTH:0.422206
G1 F1800.000
G1 X8.503 Y-8.930 E2.02664
G1 X7.966 Y-8.930 E2.04356
G1 X8.930 Y-7.966 E2.08655
G1 X8.930 Y-7.430 E2.10347
G1 X7.430 Y-8.930 E2.17038
G1 X6.893 Y-8.930 E2.18730
G1 X8.930 Y-6.893 E2.27814
G1 X8.930 Y-6.357 E2.29506
G1 X6.357 Y-8.930 E2.40982
G1 X5.821 Y-8.930 E2.42674
G1 X8.930 Y-5.821 E2.56543
G1 X8.930 Y-5.284 E2.58235
G1 X5.284 Y-8.930 E2.74496
G1 X4.748 Y-8.930 E2.76188
G1 X8.930 Y-4.748 E2.94841
G1 X8.930 Y-4.211 E2.96533
G1 X4.211 Y-8.930 E3.17579
G1 X3.675 Y-8.930 E3.19270
G1 X8.930 Y-3.675 E3.42709
G1 X8.930 Y-3.139 E3.44400
G1 X3.139 Y-8.930 E3.70231
G1 X2.602 Y-8.930 E3.71923
G1 X8.930 Y-2.602 E4.00146
G1 X8.930 Y-2.066 E4.01838
G1 X2.066 Y-8.930 E4.32453
G1 X1.529 Y-8.930 E4.34145
G1 X8.930 Y-1.529 E4.67152
G1 X8.930 Y-0.993 E4.68844
G1 X0.993 Y-8.930 E5.04244
G1 X0.457 Y-8.930 E5.05936
G1 X8.930 Y-0.457 E5.43729
G1 X8.930 Y0.080 E5.45420
G1 X-0.080 Y-8.930 E5.85605
G1 X-0.616 Y-8.930 E5.87297
G1 X8.930 Y0.616 E6.29874
G1 X8.930 Y1.152 E6.31566
G1 X-1.153 Y-8.930 E6.76535
G1 X-1.689 Y-8.930 E6.78227
G1 X8.930 Y1.689 E7.25589
G1 X8.930 Y2.225 E7.27281
G1 X-2.225 Y-8.930 E7.77035
G1 X-2.762 Y-8.930 E7.78727
G1 X8.930 Y2.762 E8.30873
G1 X8.930 Y3.298 E8.32565
G1 X-3.298 Y-8.930 E8.87104
G1 X-3.834 Y-8.930 E8.88796
G1 X8.930 Y3.834 E9.45727
G1 X8.930 Y4.371 E9.47419
G1 X-4.371 Y-8.930 E10.06743
G1 X-4.907 Y-8.930 E10.08434
G1 X8.930 Y4.907 E10.70151
G1 X8.930 Y5.444 E10.71842
G1 X-5.444 Y-8.930 E11.35951
G1 X-5.980 Y-8.930 E11.37643
G1 X8.930 Y5.980 E12.04144
G1 X8.930 Y6.516 E12.05835
G1 X-6.516 Y-8.930 E12.74728
G1 X-7.053 Y-8.930 E12.76420
G1 X8.930 Y7.053 E13.47706
G1 X8.930 Y7.589 E13.49397
G1 X-7.589 Y-8.930 E14.23075
G1 X-8.126 Y-8.930 E14.24767
G1 X8.930 Y8.126 E15.00838
G1 X8.930 Y8.662 E15.02529
G1 X-8.662 Y-8.930 E15.80992
G1 X-8.930 Y-8.930 E15.81838
G1 X-8.930 Y-8.662 E15.82684
G1 X8.662 Y8.930 E16.61146
G1 X8.125 Y8.930 E16.62838
G1 X-8.930 Y-8.125 E17.38907
G1 X-8.930 Y-7.589 E17.40599
G1 X7.589 Y8.930 E18.14277
G1 X7.053 Y8.930 E18.15968
G1 X-8.930 Y-7.053 E18.87254
G1 X-8.930 Y-6.516 E18.88945
G1 X6.516 Y8.930 E19.57838
G1 X5.980 Y8.930 E19.59530
G1 X-8.930 Y-5.980 E20.26030
G1 X-8.930 Y-5.444 E20.27722
G1 X5.444 Y8.930 E20.91830
G1 X4.907 Y8.930 E20.93521
G1 X-8.930 Y-4.907 E21.55237
G1 X-8.930 Y-4.371 E21.56929
G1 X4.371 Y8.930 E22.16252
G1 X3.834 Y8.930 E22.17944
G1 X-8.930 Y-3.834 E22.74875
G1 X-8.930 Y-3.298 E22.76567
G1 X3.298 Y8.930 E23.31105
G1 X2.762 Y8.930 E23.32797
G1 X-8.930 Y-2.762 E23.84943
G1 X-8.930 Y-2.225 E23.86635
G1 X2.225 Y8.930 E24.36389
G1 X1.689 Y8.930 E24.38080
G1 X-8.930 Y-1.689 E24.85442
G1 X-8.930 Y-1.152 E24.87133
G1 X1.152 Y8.930 E25.32103
G1 X0.616 Y8.930 E25.33794
G1 X-8.930 Y-0.616 E25.76371
G1 X-8.930 Y-0.080 E25.78063
G1 X0.080 Y8.930 E26.18247
G1 X-0.457 Y8.930 E26.19939
G1 X-8.930 Y0.457 E26.57731
G1 X-8.930 Y0.993 E26.59422
G1 X-0.993 Y8.930 E26.94822
G1 X-1.530 Y8.930 E26.96514
G1 X-8.930 Y1.530 E27.29521
G1 X-8.930 Y2.066 E27.31213
G1 X-2.066 Y8.930 E27.61828
G1 X-2.602 Y8.930 E27.63519
G1 X-8.930 Y2.602 E27.91742
G1 X-8.930 Y3.139 E27.93434
G1 X-3.139 Y8.930 E28.19264
G1 X-3.675 Y8.930 E28.20956
G1 X-8.930 Y3.675 E28.44393
G1 X-8.930 Y4.212 E28.46085
G1 X-4.212 Y8.930 E28.67131
G1 X-4.748 Y8.930 E28.68822
G1 X-8.930 Y4.748 E28.87475
G1 X-8.930 Y5.284 E28.89167
G1 X-5.284 Y8.930 E29.05428
G1 X-5.821 Y8.930 E29.07119
G1 X-8.930 Y5.821 E29.20988
G1 X-8.930 Y6.357 E29.22679
G1 X-6.357 Y8.930 E29.34155
G1 X-6.893 Y8.930 E29.35847
G1 X-8.930 Y6.893 E29.44931
G1 X-8.930 Y7.430 E29.46622
G1 X-7.430 Y8.930 E29.53314
G1 X-7.966 Y8.930 E29.55005
G1 X-8.930 Y7.966 E29.59304
G1 X-8.930 Y8.503 E29.60996
G1 X-8.333 Y9.100 E29.63659
;LAYER_CHANGE
;Z:0.4
;HEIGHT:0.2
G1 Z0.400 F7800.000
G1 X-9.368 Y-9.368
;TYPE:Perimeter
;WIDTH:0.45
G1 F6000.000
G1 X9.368 Y-9.368 E30.27078
G1 X9.368 Y9.368 E30.90497
G1 X-9.368 Y9.368 E31.53915
G1 X-9.368 Y-9.308 E32.17131
G1 X-9.775 Y-9.590 F7800.000
;TYPE:External perimeter
G1 F3900.000
G1 X-9.775 Y-9.775 E32.17757
G1 X9.775 Y-9.775 E32.83931
G1 X9.775 Y9.775 E33.50106
G1 X-9.775 Y9.775 E34.16280
G1 X-9.775 Y-9.530 E34.81625
G1 X-9.644 Y-9.721 F7800.000
G1 X8.418 Y9.246
;TYPE:Solid infill
;WIDTH:0.452429
G1 F2400.000
G1 X9.063 Y8.601 E34.84731
G1 X9.063 Y8.022 E34.86703
G1 X8.022 Y9.063 E34.91715
G1 X7.443 Y9.063 E34.93687
G1 X9.063 Y7.443 E35.01488
G1 X9.063 Y6.864 E35.03460
G1 X6.864 Y9.063 E35.14050
G1 X6.284 Y9.063 E35.16022
G1 X9.063 Y6.284 E35.29400
G1 X9.063 Y5.705 E35.31372
G1 X5.705 Y9.063 E35.47539
G1 X5.126 Y9.063 E35.49511
G1 X9.063 Y5.126 E35.68468
G1 X9.063 Y4.547 E35.70440
G1 X4.547 Y9.063 E35.92185
G1 X3.968 Y9.063 E35.94157
G1 X9.063 Y3.968 E36.18691
G1 X9.063 Y3.389 E36.20663
G1 X3.389 Y9.063 E36.47985
G1 X2.810 Y9.063 E36.49957
G1 X9.063 Y2.810 E36.80069
G1 X9.063 Y2.230 E36.82041
G1 X2.230 Y9.063 E37.14941
G1 X1.651 Y9.063 E37.16913
G1 X9.063 Y1.651 E37.52602
G1 X9.063 Y1.072 E37.54574
G1 X1.072 Y9.063 E37.93052
G1 X0.493 Y9.063 E37.95024
G1 X9.063 Y0.493 E38.36291
G1 X9.063 Y-0.086 E38.38263
G1 X-0.086 Y9.063 E38.82319
G1 X-0.665 Y9.063 E38.84291
G1 X9.063 Y-0.665 E39.31135
G1 X9.063 Y-1.244 E39.33107
G1 X-1.244 Y9.063 E39.82740
G1 X-1.823 Y9.063 E39.84712
G1 X9.063 Y-1.823 E40.37134
G1 X9.063 Y-2.403 E40.39106
G1 X-2.403 Y9.063 E40.94317
G1 X-2.982 Y9.063 E40.96289
G1 X9.063 Y-2.982 E41.54289
G1 X9.063 Y-3.561 E41.56261
G1 X-3.561 Y9.063 E42.17050
G1 X-4.140 Y9.063 E42.19022
G1 X9.063 Y-4.140 E42.82599
G1 X9.063 Y-4.719 E42.84571
G1 X-4.719 Y9.063 E43.50937
G1 X-5.298 Y9.063 E43.52909
G1 X9.063 Y-5.298 E44.22064
G1 X9.063 Y-5.877 E44.24036
G1 X-5.877 Y9.063 E44.95980
G1 X-6.457 Y9.063 E44.97952
G1 X9.063 Y-6.457 E45.72685
G1 X9.063 Y-7.036 E45.74657
G1 X-7.036 Y9.063 E46.52178
G1 X-7.615 Y9.063 E46.54150
G1 X9.063 Y-7.615 E47.34461
G1 X9.063 Y-8.194 E47.36433
G1 X-8.194 Y9.063 E48.19532
G1 X-8.773 Y9.063 E48.21504
G1 X9.063 Y-8.773 E49.07392
G1 X9.063 Y-9.063 E49.08378
G1 X8.773 Y-9.063 E49.09364
G1 X-9.063 Y8.773 E49.95251
G1 X-9.063 Y8.194 E49.97223
G1 X8.194 Y-9.063 E50.80322
G1 X7.615 Y-9.063 E50.82294
G1 X-9.063 Y7.615 E51.62604
G1 X-9.063 Y7.036 E51.64576
G1 X7.036 Y-9.063 E52.42098
G1 X6.456 Y-9.063 E52.44070
G1 X-9.063 Y6.456 E53.18802
G1 X-9.063 Y5.877 E53.20774
G1 X5.877 Y-9.063 E53.92718
G1 X5.298 Y-9.063 E53.94690
G1 X-9.063 Y5.298 E54.63844
G1 X-9.063 Y4.719 E54.65816
G1 X4.719 Y-9.063 E55.32182
G1 X4.140 Y-9.063 E55.34154
G1 X-9.063 Y4.140 E55.97731
G1 X-9.063 Y3.561 E55.99703
G1 X3.561 Y-9.063 E56.60492
G1 X2.982 Y-9.063 E56.62464
G1 X-9.063 Y2.982 E57.20463
G1 X-9.063 Y2.403 E57.22435
G1 X2.403 Y-9.063 E57.77646
G1 X1.823 Y-9.063 E57.79618
G1 X-9.063 Y1.823 E58.32040
G1 X-9.063 Y1.244 E58.34012
G1 X1.244 Y-9.063 E58.83645
G1 X0.665 Y-9.063 E58.85617
G1 X-9.063 Y0.665 E59.32461
G1 X-9.063 Y0.086 E59.34433
G1 X0.086 Y-9.063 E59.78488
G1 X-0.493 Y-9.063 E59.80460
G1 X-9.063 Y-0.493 E60.21727
G1 X-9.063 Y-1.072 E60.23699
G1 X-1.072 Y-9.063 E60.62176
G1 X-1.651 Y-9.063 E60.64148
G1 X-9.063 Y-1.651 E60.99837
G1 X-9.063 Y-2.231 E61.01809
G1 X-2.231 Y-9.063 E61.34709
G1 X-2.810 Y-9.063 E61.36681
G1 X-9.063 Y-2.810 E61.66793
G1 X-9.063 Y-3.389 E61.68765
G1 X-3.389 Y-9.063 E61.96087
G1 X-3.968 Y-9.063 E61.98059
G1 X-9.063 Y-3.968 E62.22593
G1 X-9.063 Y-4.547 E62.24565
G1 X-4.547 Y-9.063 E62.46309
G1 X-5.126 Y-9.063 E62.48281
G1 X-9.063 Y-5.126 E62.67237
G1 X-9.063 Y-5.705 E62.69209
G1 X-5.705 Y-9.063 E62.85376
G1 X-6.284 Y-9.063 E62.87348
G1 X-9.063 Y-6.284 E63.00727
G1 X-9.063 Y-6.864 E63.02699
G1 X-6.864 Y-9.063 E63.13288
G1 X-7.443 Y-9.063 E63.15260
G1 X-9.063 Y-7.443 E63.23061
G1 X-9.063 Y-8.022 E63.25033
G1 X-8.022 Y-9.063 E63.30045
G1 X-8.601 Y-9.063 E63.32017
G1 X-9.246 Y-8.418 E63.35122
M106 S219.3
;LAYER_CHANGE
;Z:0.6
;HEIGHT:0.2
G1 Z0.600 F7800.000
G1 X-9.368 Y-9.368
;TYPE:Perimeter
;WIDTH:0.45
G1 F6000.000
G1 X9.368 Y-9.368 E63.98540
G1 X9.368 Y9.368 E64.61959
G1 X-9.368 Y9.368 E65.25378
G1 X-9.368 Y-9.308 E65.88593
G1 X-9.775 Y-9.590 F7800.000
;TYPE:External perimeter
G1 F3900.000
G1 X-9.775 Y-9.775 E65.89219
G1 X9.775 Y-9.775 E66.55394
G1 X9.775 Y9.775 E67.21568
G1 X-9.775 Y9.775 E67.87743
G1 X-9.775 Y-9.530 E68.53088
G1 X-9.644 Y-9.721 F7800.000
G1 X9.246 Y-8.418
;TYPE:Solid infill
;WIDTH:0.452429
G1 F2400.000
G1 X8.601 Y-9.063 E68.56193
G1 X8.022 Y-9.063 E68.58165
G1 X9.063 Y-8.022 E68.63177
G1 X9.063 Y-7.443 E68.65149
G1 X7.443 Y-9.063 E68.72950
G1 X6.864 Y-9.063 E68.74922
G1 X9.063 Y-6.864 E68.85512
G1 X9.063 Y-6.284 E68.87484
G1 X6.284 Y-9.063 E69.00863
G1 X5.705 Y-9.063 E69.02835
G1 X9.063 Y-5.705 E69.19002
G1 X9.063 Y-5.126 E69.20974
G1 X5.126 Y-9.063 E69.39930
G1 X4.547 Y-9.063 E69.41902
G1 X9.063 Y-4.547 E69.63647
G1 X9.063 Y-3.968 E69.65619
G1 X3.968 Y-9.063 E69.90153
G1 X3.389 Y-9.063 E69.92125
G1 X9.063 Y-3.389 E70.19448
G1 X9.063 Y-2.810 E70.21420
G1 X2.810 Y-9.063 E70.51531
G1 X2.230 Y-9.063 E70.53503
G1 X9.063 Y-2.230 E70.86404
G1 X9.063 Y-1.651 E70.88376
G1 X1.651 Y-9.063 E71.24065
G1 X1.072 Y-9.063 E71.26037
G1 X9.063 Y-1.072 E71.64515
G1 X9.063 Y-0.493 E71.66487
G1 X0.493 Y-9.063 E72.07754
G1 X-0.086 Y-9.063 E72.09726
G1 X9.063 Y0.086 E72.53781
G1 X9.063 Y0.665 E72.55753
G1 X-0.665 Y-9.063 E73.02598
G1 X-1.244 Y-9.063 E73.04570
G1 X9.063 Y1.244 E73.54203
G1 X9.063 Y1.823 E73.56175
G1 X-1.823 Y-9.063 E74.08597
G1 X-2.403 Y-9.063 E74.10569
G1 X9.063 Y2.403 E74.65780
G1 X9.063 Y2.982 E74.67752
G1 X-2.982 Y-9.063 E75.25752
G1 X-3.561 Y-9.063 E75.27724
G1 X9.063 Y3.561 E75.88512
G1 X9.063 Y4.140 E75.90484
G1 X-4.140 Y-9.063 E76.54062
G1 X-4.719 Y-9.063 E76.56034
G1 X9.063 Y4.719 E77.22400
G1 X9.063 Y5.298 E77.24372
G1 X-5.298 Y-9.063 E77.93527
G1 X-5.877 Y-9.063 E77.95499
G1 X9.063 Y5.877 E78.67443
G1 X9.063 Y6.457 E78.69415
G1 X-6.457 Y-9.063 E79.44147
G1 X-7.036 Y-9.063 E79.46119
G1 X9.063 Y7.036 E80.23641
G1 X9.063 Y7.615 E80.25613
G1 X-7.615 Y-9.063 E81.05923
G1 X-8.194 Y-9.063 E81.07895
G1 X9.063 Y8.194 E81.90994
G1 X9.063 Y8.773 E81.92966
G1 X-8.773 Y-9.063 E82.78854
G1 X-9.063 Y-9.063 E82.79840
G1 X-9.063 Y-8.773 E82.80826
G1 X8.773 Y9.063 E83.66714
G1 X8.194 Y9.063 E83.68686
G1 X-9.063 Y-8.194 E84.51785
G1 X-9.063 Y-7.615 E84.53757
G1 X7.615 Y9.063 E85.34067
G1 X7.036 Y9.063 E85.36039
G1 X-9.063 Y-7.036 E86.13560
G1 X-9.063 Y-6.456 E86.15532
G1 X6.456 Y9.063 E86.90265
G1 X5.877 Y9.063 E86.92237
G1 X-9.063 Y-5.877 E87.64180
G1 X-9.063 Y-5.298 E87.66152
G1 X5.298 Y9.063 E88.35307
G1 X4.719 Y9.063 E88.37279
G1 X-9.063 Y-4.719 E89.03645
G1 X-9.063 Y-4.140 E89.05617
G1 X4.140 Y9.063 E89.69194
G1 X3.561 Y9.063 E89.71166
G1 X-9.063 Y-3.561 E90.31954
G1 X-9.063 Y-2.982 E90.33926
G1 X2.982 Y9.063 E90.91926
G1 X2.403 Y9.063 E90.93898
G1 X-9.063 Y-2.403 E91.49108
G1 X-9.063 Y-1.823 E91.51080
G1 X1.823 Y9.063 E92.03502
G1 X1.244 Y9.063 E92.05474
G1 X-9.063 Y-1.244 E92.55107
G1 X-9.063 Y-0.665 E92.57079
G1 X0.665 Y9.063 E93.03923
G1 X0.086 Y9.063 E93.05895
G1 X-9.063 Y-0.086 E93.49951
G1 X-9.063 Y0.493 E93.51923
G1 X-0.493 Y9.063 E93.93189
G1 X-1.072 Y9.063 E93.95161
G1 X-9.063 Y1.072 E94.33639
G1 X-9.063 Y1.651 E94.35611
G1 X-1.651 Y9.063 E94.71300
G1 X-2.231 Y9.063 E94.73272
G1 X-9.063 Y2.231 E95.06172
G1 X-9.063 Y2.810 E95.08144
G1 X-2.810 Y9.063 E95.38255
G1 X-3.389 Y9.063 E95.40227
G1 X-9.063 Y3.389 E95.67550
G1 X-9.063 Y3.968 E95.69522
G1 X-3.968 Y9.063 E95.94055
G1 X-4.547 Y9.063 E95.96027
G1 X-9.063 Y4.547 E96.17772
G1 X-9.063 Y5.126 E96.19744
G1 X-5.126 Y9.063 E96.38700
G1 X-5.705 Y9.063 E96.40672
G1 X-9.063 Y5.705 E96.56839
G1 X-9.063 Y6.284 E96.58811
G1 X-6.284 Y9.063 E96.72189
G1 X-6.864 Y9.063 E96.74161
G1 X-9.063 Y6.864 E96.84751
G1 X-9.063 Y7.443 E96.86723
G1 X-7.443 Y9.063 E96.94523
G1 X-8.022 Y9.063 E96.96495
G1 X-9.063 Y8.022 E97.01507
G1 X-9.063 Y8.601 E97.03479
G1 X-8.418 Y9.246 E97.06584
M106 S252.45
;LAYER_CHANGE
;Z:0.8
;HEIGHT:0.2
G1 Z0.800 F7800.000
G1 X-9.368 Y-9.368
;TYPE:Perimeter
;WIDTH:0.45
G1 F4487
G1 X9.368 Y-9.368 E97.70003
G1 X9.368 Y9.368 E98.33421
G1 X-9.368 Y9.368 E98.96840
G1 X-9.368 Y-9.308 E99.60056
G1 X-9.775 Y-9.590 F7800.000
;TYPE:External perimeter
G1 F3900.000
G1 X-9.775 Y-9.775 E99.60682
G1 X9.775 Y-9.775 E100.26856
G1 X9.775 Y9.775 E100.93031
G1 X-9.775 Y9.775 E101.59205
G1 X-9.775 Y-9.530 E102.24550
G1 X-9.644 Y-9.721 F7800.000
G1 X-9.063 Y-7.420
;TYPE:Internal infill
G1 F4487
G1 X-9.063 Y-9.063 E102.30110
G1 X-8.263 Y-9.063 E102.32818
G1 X9.063 Y8.263 E103.15753
G1 X9.063 Y4.479 E103.28560
G1 X-8.044 Y9.063 E103.88506
G1 X-7.408 Y9.063 E103.90658
G1 X-9.063 Y7.408 E103.98577
G1 X-9.063 Y8.044 E104.00729
G1 X-4.479 Y-9.063 E104.60675
G1 X-2.036 Y-9.063 E104.68943
G1 X-9.063 Y0.571 F7800.000
G1 F4487
G1 X-9.063 Y3.014 E104.77210
G1 X9.063 Y-1.843 E105.40726
G1 X9.063 Y-0.373 E105.45701
G1 X0.373 Y-9.063 E105.87299
G1 X1.843 Y-9.063 E105.92274
G1 X-3.014 Y9.063 E106.55790
G1 X1.227 Y9.063 E106.70146
G1 X-9.063 Y-1.227 E107.19402
G1 X-9.063 Y-3.308 E107.26444
G1 X9.063 Y-8.164 E107.89960
G1 X9.063 Y-9.063 E107.93001
G1 X8.164 Y-9.063 E107.96042
G1 X3.308 Y9.063 E108.59558
G1 X5.750 Y9.063 E108.67825
;LAYER_CHANGE
;Z:1
;HEIGHT:0.2
G1 Z1.000 F7800.000
G1 X-9.368 Y-9.368
;TYPE:Perimeter
G1 F4628
G1 X9.368 Y-9.368 E109.31244
G1 X9.368 Y9.368 E109.94662
G1 X-9.368 Y9.368 E110.58081
G1 X-9.368 Y-9.308 E111.21297
G1 X-9.775 Y-9.590 F7800.000
;TYPE:External perimeter
