; generated by PrusaSlicer 2.3.3 on 2021-10-02 at 10:14:30 UTC

; 

; external perimeters extrusion width = 0.45mm
; perimeters extrusion width = 0.45mm
; infill extrusion width = 0.45mm
; solid infill extrusion width = 0.45mm
; top infill extrusion width = 0.40mm
; first layer extrusion width = 0.42mm

M201 X9000 Y9000 Z500 E10000 ; sets maximum accelerations, mm/sec^2
M203 X500 Y500 Z12 E120 ; sets maximum feedrates, mm/sec
M204 P1500 R1500 T1500 ; sets acceleration (P, T) and retract acceleration (R), mm/sec^2
M205 X10.00 Y10.00 Z0.20 E2.50 ; sets the jerk limits, mm/sec
M205 S0 T0 ; sets the minimum extruding and travel feed rate, mm/sec
M107
M190 S60 ; set bed temperature and wait for it to be reached
M104 S210 ; set temperature
;TYPE:Custom
G28 ; home all axes
G1 Z5 F5000 ; lift nozzle
M109 S210 ; set temperature and wait for it to be reached
G21 ; set units to millimeters
G90 ; use absolute coordinates
M82 ; use absolute distances for extrusion
G92 E0
; Filament gcode
;LAYER_CHANGE
;Z:0.2
;HEIGHT:0.2
G1 Z0.200 F7800.000
G1 E-2.00000 F2400.000
G92 E0
G1 X-58.554 Y-9.621 F7800.000
G1 E2.00000 F2400.000
;TYPE:Skirt
;WIDTH:0.42
G1 F1500.000
G1 X-58.212 Y-11.707 E2.06629
G1 X-57.314 Y-15.517 E2.18902
G1 X-56.224 Y-19.082 E2.30589
G1 X-54.761 Y-22.953 E2.43566
G1 X-53.127 Y-26.517 E2.55860
G1 X-51.359 Y-29.792 E2.67527
G1 X-49.161 Y-33.299 E2.80505
G1 X-46.721 Y-36.639 E2.93474
G1 X-44.335 Y-39.498 E3.05150
G1 X-41.636 Y-42.334 E3.17424
G1 X-38.581 Y-45.132 E3.30413
G1 X-35.678 Y-47.464 E3.42089
G1 X-32.468 Y-49.715 E3.54383
G1 X-28.927 Y-51.853 E3.67353
G1 X-25.621 Y-53.568 E3.79029
G1 X-22.036 Y-55.140 E3.91303
G1 X-18.137 Y-56.540 E4.04293
G1 X-14.558 Y-57.569 E4.15969
G1 X-10.733 Y-58.404 E4.28244
G1 X-6.638 Y-59.008 E4.41222
G1 X-2.929 Y-59.311 E4.52890
G1 X0.898 Y-59.377 E4.64891
G1 X5.125 Y-59.161 E4.78163
G1 X8.827 Y-58.727 E4.89850
G1 X12.678 Y-58.019 E5.02125
G1 X16.691 Y-56.992 E5.15115
G1 X20.232 Y-55.838 E5.26791
G1 X23.867 Y-54.385 E5.39066
G1 X27.599 Y-52.587 E5.52055
G1 X30.843 Y-50.758 E5.63731
G1 X34.125 Y-48.613 E5.76025
G1 X37.425 Y-46.118 E5.88995
G1 X40.244 Y-43.686 E6.00671
G1 X43.027 Y-40.950 E6.12906
G1 X45.783 Y-37.840 E6.25934
G1 X48.067 Y-34.900 E6.37609
G1 X50.266 Y-31.653 E6.49903
G1 X52.345 Y-28.077 E6.62873
G1 X54.005 Y-24.744 E6.74548
G1 X55.516 Y-21.139 E6.86802
G1 X56.853 Y-17.212 E6.99810
G1 X57.824 Y-13.617 E7.11485
G1 X58.594 Y-9.786 E7.23739
G1 X59.131 Y-5.682 E7.36716
G1 X59.374 Y-1.962 E7.48403
G1 X59.377 Y1.753 E7.60051
G1 X59.093 Y6.069 E7.73614
G1 X58.596 Y9.776 E7.85340
G1 X57.867 Y13.418 E7.96988
G1 X56.795 Y17.416 E8.09965
G1 X55.441 Y21.325 E8.22934
G1 X54.001 Y24.752 E8.34590
G1 X52.339 Y28.088 E8.46277
G1 X50.255 Y31.671 E8.59274
G1 X48.066 Y34.902 E8.71509
G1 X45.775 Y37.850 E8.83215
G1 X42.894 Y41.085 E8.96798
G1 X40.238 Y43.692 E9.08466
G1 X37.416 Y46.127 E9.20154
G1 X34.113 Y48.622 E9.33132
G1 X30.846 Y50.756 E9.45367
G1 X27.599 Y52.587 E9.57055
G1 X23.853 Y54.391 E9.70091
G1 X20.229 Y55.839 E9.82327
G1 X16.691 Y56.992 E9.93995
G1 X12.675 Y58.019 E10.06992
G1 X8.831 Y58.726 E10.19248
G1 X5.123 Y59.161 E10.30955
G1 X0.889 Y59.377 E10.44246
G1 X-2.925 Y59.312 E10.56208
G1 X-6.641 Y59.007 E10.67896
G1 X-10.736 Y58.403 E10.80874
G1 X-14.560 Y57.568 E10.93148
G1 X-18.137 Y56.540 E11.04817
G1 X-22.038 Y55.139 E11.17814
G1 X-25.618 Y53.569 E11.30069
G1 X-28.927 Y51.853 E11.41757
G1 X-32.470 Y49.714 E11.54735
G1 X-35.675 Y47.466 E11.67009
G1 X-38.581 Y45.132 E11.78696
G1 X-41.638 Y42.332 E11.91694
G1 X-44.333 Y39.501 E12.03948
G1 X-46.721 Y36.639 E12.15635
G1 X-49.163 Y33.297 E12.28613
G1 X-51.250 Y29.985 E12.40887
G1 X-53.027 Y26.709 E12.52574
G1 X-54.762 Y22.951 E12.65551
G1 X-56.155 Y19.293 E12.77825
G1 X-57.252 Y15.731 E12.89512
G1 X-58.212 Y11.705 E13.02488
G1 X-58.857 Y7.844 E13.14762
G1 X-59.230 Y4.135 E13.26449
G1 X-59.377 Y-0.001 E13.39426
G1 X-59.248 Y-3.914 E13.51699
G1 X-58.883 Y-7.623 E13.63386
G1 X-58.564 Y-9.562 E13.69546
G1 E11.69546 F2400.000
G92 E0
G1 X-40.939 Y-6.522 F7800.000
G1 E2.00000 F2400.000
;TYPE:Perimeter
G1 F1500.000
G1 X-40.619 Y-8.378 E2.05905
G1 X-39.938 Y-11.191 E2.14980
G1 X-39.081 Y-13.892 E2.23863
G1 X-38.042 Y-16.527 E2.32745
G1 X-37.059 Y-18.593 E2.39919
G1 X-36.825 Y-19.085 E2.41626
G1 X-35.437 Y-21.554 E2.50508
G1 X-33.883 Y-23.922 E2.59389
G1 X-32.209 Y-26.130 E2.68075
G1 X-30.310 Y-28.314 E2.77150
G1 X-28.306 Y-30.317 E2.86034
G1 X-26.171 Y-32.179 E2.94916
G1 X-23.914 Y-33.890 E3.03798
G1 X-21.545 Y-35.444 E3.12680
G1 X-19.076 Y-36.832 E3.21562
G1 X-16.517 Y-38.049 E3.30444
G1 X-13.882 Y-39.088 E3.39327
G1 X-11.182 Y-39.945 E3.48209
G1 X-8.429 Y-40.615 E3.57091
G1 X-5.638 Y-41.096 E3.65973
G1 X-2.819 Y-41.386 E3.74856
G1 X-0.051 Y-41.481 E3.83542
G1 X2.842 Y-41.386 E3.92618
G1 X5.661 Y-41.096 E4.01503
G1 X8.453 Y-40.615 E4.10385
G1 X11.205 Y-39.945 E4.19267
G1 X13.905 Y-39.088 E4.28149
G1 X16.541 Y-38.049 E4.37032
G1 X19.099 Y-36.832 E4.45914
G1 X21.568 Y-35.444 E4.54796
G1 X23.937 Y-33.890 E4.63678
G1 X26.194 Y-32.179 E4.72560
G1 X28.330 Y-30.317 E4.81442
G1 X30.333 Y-28.314 E4.90324
G1 X32.195 Y-26.179 E4.99205
G1 X33.906 Y-23.922 E5.08087
G1 X35.460 Y-21.554 E5.16969
G1 X36.849 Y-19.085 E5.25850
G1 X38.065 Y-16.527 E5.34732
G1 X39.105 Y-13.892 E5.43613
G1 X39.962 Y-11.192 E5.52495
G1 X40.632 Y-8.440 E5.61376
G1 X41.114 Y-5.649 E5.70257
G1 X41.403 Y-2.831 E5.79138
G1 X41.500 Y0.000 E5.88020
G1 X41.403 Y2.831 E5.96901
G1 X41.114 Y5.649 E6.05782
G1 X40.632 Y8.440 E6.14664
G1 X39.962 Y11.192 E6.23545
G1 X39.105 Y13.892 E6.32426
G1 X38.065 Y16.527 E6.41308
G1 X36.849 Y19.085 E6.50189
G1 X35.460 Y21.554 E6.59071
G1 X33.906 Y23.922 E6.67952
G1 X32.233 Y26.130 E6.76638
G1 X30.333 Y28.314 E6.85713
G1 X28.330 Y30.317 E6.94597
G1 X26.194 Y32.179 E7.03479
G1 X23.937 Y33.890 E7.12361
G1 X21.568 Y35.444 E7.21243
G1 X19.099 Y36.832 E7.30125
G1 X16.541 Y38.049 E7.39007
G1 X13.905 Y39.088 E7.47890
G1 X11.205 Y39.945 E7.56772
G1 X8.453 Y40.615 E7.65654
G1 X5.661 Y41.096 E7.74536
G1 X2.843 Y41.386 E7.83419
G1 X0.012 Y41.483 E7.92301
G1 X-2.819 Y41.386 E8.01184
G1 X-5.575 Y41.103 E8.09870
G1 X-8.429 Y40.615 E8.18946
G1 X-11.182 Y39.945 E8.27830
G1 X-13.882 Y39.088 E8.36712
G1 X-16.517 Y38.049 E8.45595
G1 X-19.076 Y36.832 E8.54477
G1 X-21.545 Y35.444 E8.63359
G1 X-23.914 Y33.890 E8.72241
G1 X-26.171 Y32.179 E8.81123
G1 X-28.259 Y30.358 E8.89809
G1 X-30.309 Y28.315 E8.98884
G1 X-32.171 Y26.179 E9.07768
G1 X-33.883 Y23.922 E9.16650
G1 X-35.437 Y21.554 E9.25531
G1 X-36.825 Y19.085 E9.34413
G1 X-38.042 Y16.527 E9.43294
G1 X-39.081 Y13.892 E9.52176
G1 X-39.938 Y11.192 E9.61057
G1 X-40.609 Y8.440 E9.69938
G1 X-41.090 Y5.649 E9.78820
G1 X-41.380 Y2.831 E9.87701
G1 X-41.477 Y0.000 E9.96582
G1 X-41.380 Y-2.831 E10.05464
G1 X-41.090 Y-5.649 E10.14345
G1 X-40.950 Y-6.463 E10.16937
G1 X-40.578 Y-6.399 F7800.000
G1 F1500.000
G1 X-40.250 Y-8.302 E10.22990
G1 X-39.575 Y-11.090 E10.31984
G1 X-38.726 Y-13.765 E10.40786
G1 X-37.696 Y-16.377 E10.49587
G1 X-36.718 Y-18.431 E10.56721
G1 X-36.490 Y-18.911 E10.58388
G1 X-35.114 Y-21.358 E10.67188
G1 X-33.575 Y-23.705 E10.75989
G1 X-31.916 Y-25.892 E10.84595
G1 X-30.034 Y-28.056 E10.93589
G1 X-28.049 Y-30.041 E11.02392
G1 X-25.933 Y-31.886 E11.11193
G1 X-23.696 Y-33.582 E11.19994
G1 X-21.349 Y-35.121 E11.28795
G1 X-18.902 Y-36.497 E11.37597
G1 X-16.367 Y-37.702 E11.46398
G1 X-13.755 Y-38.732 E11.55200
G1 X-11.080 Y-39.581 E11.64001
G1 X-8.353 Y-40.246 E11.72803
G1 X-5.586 Y-40.723 E11.81604
G1 X-2.794 Y-41.010 E11.90406
G1 X-0.051 Y-41.103 E11.99012
G1 X2.817 Y-41.010 E12.08007
G1 X5.610 Y-40.723 E12.16810
G1 X8.376 Y-40.246 E12.25612
G1 X11.103 Y-39.581 E12.34413
G1 X13.779 Y-38.732 E12.43215
G1 X16.390 Y-37.702 E12.52016
G1 X18.925 Y-36.497 E12.60818
G1 X21.372 Y-35.121 E12.69619
G1 X23.720 Y-33.582 E12.78420
G1 X25.956 Y-31.886 E12.87221
G1 X28.072 Y-30.041 E12.96023
G1 X30.057 Y-28.057 E13.04824
G1 X31.902 Y-25.941 E13.13625
G1 X33.598 Y-23.705 E13.22426
G1 X35.138 Y-21.358 E13.31226
G1 X36.514 Y-18.911 E13.40027
G1 X37.719 Y-16.377 E13.48828
G1 X38.749 Y-13.765 E13.57628
G1 X39.598 Y-11.090 E13.66429
G1 X40.263 Y-8.363 E13.75230
G1 X40.740 Y-5.597 E13.84030
G1 X41.027 Y-2.805 E13.92831
G1 X41.123 Y0.000 E14.01631
G1 X41.027 Y2.805 E14.10431
G1 X40.740 Y5.597 E14.19232
G1 X40.263 Y8.363 E14.28032
G1 X39.598 Y11.090 E14.36833
G1 X38.749 Y13.765 E14.45634
G1 X37.719 Y16.377 E14.54434
G1 X36.514 Y18.911 E14.63235
G1 X35.138 Y21.358 E14.72036
G1 X33.598 Y23.705 E14.80837
G1 X31.940 Y25.892 E14.89442
G1 X30.057 Y28.056 E14.98437
G1 X28.072 Y30.041 E15.07239
G1 X25.956 Y31.886 E15.16040
G1 X23.720 Y33.582 E15.24841
G1 X21.372 Y35.121 E15.33643
G1 X18.925 Y36.497 E15.42444
G1 X16.390 Y37.702 E15.51245
G1 X13.779 Y38.732 E15.60047
G1 X11.103 Y39.581 E15.68848
G1 X8.376 Y40.246 E15.77650
G1 X5.610 Y40.723 E15.86451
G1 X2.817 Y41.010 E15.95253
G1 X0.012 Y41.106 E16.04055
G1 X-2.794 Y41.010 E16.12856
G1 X-5.524 Y40.729 E16.21462
G1 X-8.352 Y40.246 E16.30458
G1 X-11.080 Y39.581 E16.39260
G1 X-13.755 Y38.732 E16.48062
G1 X-16.367 Y37.702 E16.56863
G1 X-18.902 Y36.497 E16.65665
G1 X-21.349 Y35.121 E16.74466
G1 X-23.696 Y33.582 E16.83268
G1 X-25.933 Y31.886 E16.92069
G1 X-28.002 Y30.082 E17.00674
G1 X-30.033 Y28.057 E17.09669
G1 X-31.879 Y25.941 E17.18471
G1 X-33.575 Y23.705 E17.27272
G1 X-35.114 Y21.358 E17.36073
G1 X-36.490 Y18.911 E17.44874
G1 X-37.696 Y16.377 E17.53675
G1 X-38.726 Y13.765 E17.62475
G1 X-39.575 Y11.090 E17.71276
G1 X-40.239 Y8.363 E17.80076
G1 X-40.716 Y5.597 E17.88877
G1 X-41.003 Y2.805 E17.97677
G1 X-41.099 Y0.000 E18.06478
G1 X-41.003 Y-2.805 E18.15278
G1 X-40.716 Y-5.597 E18.24079
G1 X-40.588 Y-6.340 E18.26442
G1 X-40.217 Y-6.276 F7800.000
;TYPE:External perimeter
G1 F1500.000
G1 X-39.881 Y-8.225 E18.32644
G1 X-39.212 Y-10.988 E18.41558
G1 X-38.370 Y-13.639 E18.50278
G1 X-37.350 Y-16.226 E18.58998
G1 X-36.378 Y-18.269 E18.66091
G1 X-36.155 Y-18.738 E18.67718
G1 X-34.792 Y-21.162 E18.76438
G1 X-33.266 Y-23.487 E18.85158
G1 X-31.623 Y-25.654 E18.93683
G1 X-29.758 Y-27.799 E19.02597
G1 X-27.791 Y-29.766 E19.11318
G1 X-25.695 Y-31.593 E19.20038
G1 X-23.479 Y-33.274 E19.28759
G1 X-21.153 Y-34.799 E19.37479
G1 X-18.728 Y-36.162 E19.46200
G1 X-16.217 Y-37.356 E19.54920
G1 X-13.629 Y-38.377 E19.63641
G1 X-10.978 Y-39.218 E19.72362
G1 X-8.276 Y-39.876 E19.81083
G1 X-5.535 Y-40.349 E19.89803
G1 X-2.768 Y-40.633 E19.98524
G1 X-0.050 Y-40.726 E20.07050
G1 X2.791 Y-40.633 E20.15965
G1 X5.558 Y-40.349 E20.24686
G1 X8.299 Y-39.876 E20.33407
G1 X11.002 Y-39.218 E20.42128
G1 X13.653 Y-38.377 E20.50849
G1 X16.240 Y-37.356 E20.59569
G1 X18.752 Y-36.162 E20.68290
G1 X21.176 Y-34.799 E20.77011
G1 X23.502 Y-33.274 E20.85731
G1 X25.718 Y-31.593 E20.94451
G1 X27.815 Y-29.766 E21.03172
G1 X29.781 Y-27.799 E21.11892
G1 X31.609 Y-25.703 E21.20612
G1 X33.290 Y-23.487 E21.29332
G1 X34.815 Y-21.162 E21.38052
G1 X36.179 Y-18.738 E21.46772
G1 X37.373 Y-16.226 E21.55492
G1 X38.394 Y-13.639 E21.64212
G1 X39.235 Y-10.988 E21.72932
G1 X39.894 Y-8.286 E21.81652
G1 X40.366 Y-5.546 E21.90371
G1 X40.651 Y-2.779 E21.99091
G1 X40.746 Y0.000 E22.07811
G1 X40.651 Y2.779 E22.16530
G1 X40.366 Y5.546 E22.25250
G1 X39.894 Y8.286 E22.33970
G1 X39.235 Y10.988 E22.42690
G1 X38.394 Y13.639 E22.51409
G1 X37.373 Y16.226 E22.60129
G1 X36.179 Y18.738 E22.68849
G1 X34.815 Y21.162 E22.77569
G1 X33.290 Y23.487 E22.86289
G1 X31.647 Y25.654 E22.94815
G1 X29.782 Y27.799 E23.03729
G1 X27.815 Y29.766 E23.12449
G1 X25.718 Y31.593 E23.21170
G1 X23.502 Y33.274 E23.29890
G1 X21.176 Y34.799 E23.38611
G1 X18.752 Y36.162 E23.47331
G1 X16.240 Y37.356 E23.56052
G1 X13.653 Y38.377 E23.64772
G1 X11.002 Y39.218 E23.73493
G1 X8.299 Y39.876 E23.82214
G1 X5.558 Y40.349 E23.90935
G1 X2.792 Y40.633 E23.99656
G1 X0.012 Y40.728 E24.08376
G1 X-2.768 Y40.633 E24.17097
G1 X-5.473 Y40.355 E24.25624
G1 X-8.276 Y39.876 E24.34538
G1 X-10.978 Y39.218 E24.43259
G1 X-13.629 Y38.377 E24.51980
G1 X-16.217 Y37.356 E24.60701
G1 X-18.728 Y36.162 E24.69421
G1 X-21.153 Y34.799 E24.78142
G1 X-23.479 Y33.274 E24.86862
G1 X-25.695 Y31.593 E24.95583
G1 X-27.744 Y29.806 E25.04109
G1 X-29.758 Y27.799 E25.13023
G1 X-31.586 Y25.703 E25.21743
G1 X-33.266 Y23.487 E25.30463
G1 X-34.792 Y21.162 E25.39183
G1 X-36.155 Y18.738 E25.47903
G1 X-37.350 Y16.226 E25.56623
G1 X-38.370 Y13.639 E25.65343
G1 X-39.211 Y10.988 E25.74063
G1 X-39.870 Y8.286 E25.82783
G1 X-40.343 Y5.546 E25.91502
G1 X-40.627 Y2.779 E26.00222
G1 X-40.722 Y0.000 E26.08942
G1 X-40.627 Y-2.779 E26.17661
G1 X-40.343 Y-5.546 E26.26381
G1 X-40.227 Y-6.217 E26.28516
G1 X-40.529 Y-6.526 F7800.000
G1 X-41.323 Y-6.400
;TYPE:Perimeter
G1 F1500.000
G1 X-41.014 Y-8.248 E26.34390
G1 X-40.379 Y-10.940 E26.43064
G1 X-39.550 Y-13.632 E26.51896
G1 X-38.583 Y-16.171 E26.60415
G1 X-37.430 Y-18.687 E26.69091
G1 X-36.113 Y-21.120 E26.77766
G1 X-34.638 Y-23.461 E26.86442
G1 X-33.011 Y-25.699 E26.95117
G1 X-31.241 Y-27.825 E27.03793
G1 X-29.333 Y-29.830 E27.12469
G1 X-27.297 Y-31.704 E27.21144
G1 X-25.142 Y-33.439 E27.29820
G1 X-22.876 Y-35.028 E27.38496
G1 X-20.511 Y-36.464 E27.47172
G1 X-18.056 Y-37.740 E27.55848
G1 X-15.522 Y-38.852 E27.64525
G1 X-12.920 Y-39.793 E27.73201
G1 X-10.261 Y-40.561 E27.81877
G1 X-7.558 Y-41.151 E27.90554
G1 X-4.821 Y-41.561 E27.99230
G1 X-2.064 Y-41.790 E28.07905
G1 X0.753 Y-41.833 E28.16738
G1 X3.467 Y-41.698 E28.25259
G1 X6.216 Y-41.379 E28.33935
G1 X8.938 Y-40.878 E28.42612
G1 X11.620 Y-40.199 E28.51288
G1 X14.252 Y-39.344 E28.59964
G1 X16.822 Y-38.317 E28.68640
G1 X19.318 Y-37.122 E28.77317
G1 X21.729 Y-35.765 E28.85993
G1 X24.046 Y-34.252 E28.94669
G1 X26.257 Y-32.589 E29.03345
G1 X28.354 Y-30.783 E29.12021
G1 X30.327 Y-28.843 E29.20696
G1 X32.167 Y-26.777 E29.29372
G1 X33.867 Y-24.594 E29.38048
G1 X35.418 Y-22.303 E29.46723
G1 X36.815 Y-19.914 E29.55399
G1 X38.051 Y-17.439 E29.64074
G1 X39.120 Y-14.887 E29.72749
G1 X40.019 Y-12.270 E29.81425
G1 X40.743 Y-9.599 E29.90100
G1 X41.288 Y-6.887 E29.98775
G1 X41.653 Y-4.144 E30.07450
G1 X41.836 Y-1.383 E30.16125
G1 X41.836 Y1.383 E30.24800
G1 X41.653 Y4.144 E30.33475
G1 X41.288 Y6.887 E30.42151
G1 X40.743 Y9.599 E30.50824
G1 X40.003 Y12.317 E30.59656
G1 X39.120 Y14.887 E30.68176
G1 X38.051 Y17.439 E30.76851
G1 X36.815 Y19.914 E30.85527
G1 X35.418 Y22.303 E30.94202
G1 X33.867 Y24.594 E31.02877
G1 X32.167 Y26.777 E31.11553
G1 X30.327 Y28.843 E31.20229
G1 X28.354 Y30.783 E31.28905
G1 X26.257 Y32.589 E31.37580
G1 X24.046 Y34.252 E31.46256
G1 X21.729 Y35.765 E31.54932
G1 X19.318 Y37.122 E31.63608
G1 X16.822 Y38.317 E31.72285
G1 X14.252 Y39.344 E31.80961
G1 X11.620 Y40.199 E31.89637
G1 X8.938 Y40.878 E31.98313
G1 X6.216 Y41.379 E32.06990
G1 X3.467 Y41.698 E32.15666
G1 X0.704 Y41.835 E32.24343
G1 X-2.063 Y41.790 E32.33019
G1 X-4.821 Y41.561 E32.41695
G1 X-7.558 Y41.151 E32.50372
G1 X-10.261 Y40.561 E32.59048
G1 X-12.920 Y39.793 E32.67724
G1 X-15.522 Y38.852 E32.76401
G1 X-18.056 Y37.740 E32.85077
G1 X-20.511 Y36.464 E32.93753
G1 X-22.876 Y35.028 E33.02429
G1 X-25.142 Y33.439 E33.11105
G1 X-27.297 Y31.704 E33.19781
G1 X-29.333 Y29.830 E33.28457
G1 X-31.240 Y27.826 E33.37131
G1 X-33.041 Y25.659 E33.45964
G1 X-34.638 Y23.461 E33.54483
G1 X-36.113 Y21.120 E33.63159
G1 X-37.430 Y18.687 E33.71834
G1 X-38.583 Y16.171 E33.80510
G1 X-39.568 Y13.586 E33.89185
G1 X-40.379 Y10.941 E33.97860
G1 X-41.014 Y8.248 E34.06535
G1 X-41.470 Y5.519 E34.15209
G1 X-41.745 Y2.716 E34.24041
G1 X-41.835 Y0.000 E34.32560
G1 X-41.744 Y-2.765 E34.41236
G1 X-41.470 Y-5.518 E34.49911
G1 X-41.332 Y-6.341 E34.52524
G1 X-41.704 Y-6.403 F7800.000
G1 F1500.000
G1 X-41.384 Y-8.322 E34.58625
G1 X-40.744 Y-11.039 E34.67377
G1 X-39.907 Y-13.755 E34.76288
G1 X-38.931 Y-16.317 E34.84885
G1 X-37.768 Y-18.855 E34.93639
G1 X-36.439 Y-21.310 E35.02392
G1 X-34.950 Y-23.672 E35.11146
G1 X-33.309 Y-25.931 E35.19900
G1 X-31.522 Y-28.076 E35.28654
G1 X-29.597 Y-30.099 E35.37408
G1 X-27.543 Y-31.989 E35.46162
G1 X-25.368 Y-33.740 E35.54916
G1 X-23.083 Y-35.344 E35.63670
G1 X-20.696 Y-36.793 E35.72424
G1 X-18.219 Y-38.081 E35.81178
G1 X-15.662 Y-39.202 E35.89933
G1 X-13.036 Y-40.152 E35.98687
G1 X-10.354 Y-40.926 E36.07442
